assets/sonr-icons/user-edit.svg

<svg xmlns="http://www.w3.org/2000/svg" width="24" height="24" fill="none" viewBox="0 0 24 24"><path fill="#000" fill-rule="evenodd" d="M9.6 2.40002C6.94881 2.40002 4.8 4.54883 4.8 7.20002C4.8 9.85122 6.94881 12 9.6 12C12.2512 12 14.4 9.85122 14.4 7.20002C14.4 4.54883 12.2512 2.40002 9.6 2.40002ZM6.72 7.20002C6.72 5.60922 8.0092 4.32002 9.6 4.32002C11.1908 4.32002 12.48 5.60922 12.48 7.20002C12.48 8.79083 11.1908 10.08 9.6 10.08C8.0092 10.08 6.72 8.79083 6.72 7.20002Z" clip-rule="evenodd"/><path fill="#000" d="M15.7205 2.74927C15.2291 2.55019 14.6693 2.78717 14.4702 3.27857C14.2712 3.76997 14.5081 4.32971 14.9995 4.52878C16.057 4.95716 16.8 5.99267 16.8 7.20002C16.8 7.73022 17.2298 8.16002 17.76 8.16002C18.2902 8.16002 18.72 7.73022 18.72 7.20002C18.72 5.18337 17.477 3.46089 15.7205 2.74927Z"/><path fill="#000" fill-rule="evenodd" d="M21.7988 11.3212C20.8939 10.4163 19.4261 10.4163 18.5212 11.3212L12.1302 17.7122L12.1049 17.7374C12.0093 17.8327 11.8898 17.9517 11.7905 18.0935L11.7882 18.0969C11.7069 18.2141 11.6329 18.3472 11.5754 18.4974C11.5136 18.6566 11.4809 18.8209 11.4551 18.9506L11.0587 20.9317C10.9957 21.2464 11.0942 21.5719 11.3212 21.7988C11.5482 22.0258 11.8736 22.1243 12.1884 22.0614L14.1693 21.665C14.2998 21.639 14.4651 21.6061 14.6251 21.5437C14.769 21.4879 14.9024 21.4156 15.0231 21.3319L15.0265 21.3295C15.1684 21.2302 15.2874 21.1107 15.3827 21.0151L15.4078 20.9898L21.7988 14.5988C22.7037 13.6939 22.7037 12.2261 21.7988 11.3212ZM19.8788 12.6788C20.0339 12.5238 20.2861 12.5238 20.4412 12.6788C20.5963 12.8339 20.5963 13.0861 20.4412 13.2412L14.0502 19.6322C13.9848 19.6976 13.9524 19.7298 13.9281 19.7525L13.9266 19.7539L13.923 19.7547C13.8905 19.7624 13.8449 19.7717 13.7547 19.7899L13.2239 19.8961L13.3302 19.3653C13.3484 19.2744 13.3576 19.2297 13.3653 19.197L13.3661 19.1934L13.3675 19.192C13.3902 19.1676 13.4224 19.1353 13.4878 19.0698L19.8788 12.6788Z" clip-rule="evenodd"/><path fill="#000" d="M12 14.88C12 14.3498 11.5702 13.92 11.04 13.92H8.12594C7.26033 13.92 6.562 13.92 5.99361 13.9587C5.40919 13.9986 4.89177 14.0828 4.40245 14.2852C3.22636 14.7726 2.29232 15.707 1.80489 16.8831C1.60253 17.3724 1.51856 17.8888 1.47873 18.4731C1.43999 19.0413 1.44 19.7393 1.44 20.6049V20.639C1.44 21.1692 1.86981 21.599 2.4 21.599C2.9302 21.599 3.36 21.1692 3.36 20.639C3.36 19.7314 3.36052 19.0988 3.39428 18.6037C3.42743 18.1174 3.48941 17.834 3.57899 17.6172C3.87156 16.9116 4.43158 16.3516 5.13724 16.059C5.35387 15.9695 5.63756 15.9075 6.12415 15.8743C6.61957 15.8405 7.25239 15.84 8.16 15.84H11.04C11.5702 15.84 12 15.4102 12 14.88Z"/></svg>

<svg xmlns="http://www.w3.org/2000/svg" width="24" height="24" fill="none"><path fill="currentColor" fill-rule="evenodd" d="M9.6 2.4a4.8 4.8 0 1 0 0 9.6 4.8 4.8 0 0 0 0-9.6M6.72 7.2a2.88 2.88 0 1 1 5.76 0 2.88 2.88 0 0 1-5.76 0" clip-rule="evenodd"/><path fill="currentColor" d="M15.72 2.75A.96.96 0 0 0 15 4.528 2.88 2.88 0 0 1 16.8 7.2a.96.96 0 1 0 1.92 0 4.8 4.8 0 0 0-3-4.45"/><path fill="currentColor" fill-rule="evenodd" d="M21.799 11.321a2.32 2.32 0 0 0-3.278 0l-6.39 6.391-.026.025c-.096.096-.215.215-.315.357l-.002.003c-.081.117-.155.25-.213.4-.061.16-.094.324-.12.454l-.396 1.98a.96.96 0 0 0 1.13 1.13l1.98-.396c.13-.026.296-.059.456-.121q.216-.085.398-.212l.004-.003c.141-.099.26-.218.356-.314l.025-.025 6.39-6.391a2.32 2.32 0 0 0 0-3.278m-1.92 1.358a.398.398 0 0 1 .562.562l-6.39 6.391-.123.12-.001.002h-.004l-.168.036-.531.106.106-.53c.018-.092.028-.136.035-.169l.001-.004.002-.001.12-.122z" clip-rule="evenodd"/><path fill="currentColor" d="M12 14.88a.96.96 0 0 0-.96-.96H8.126c-.866 0-1.564 0-2.132.039-.585.04-1.102.124-1.592.326a4.8 4.8 0 0 0-2.597 2.598c-.202.49-.286 1.006-.326 1.59-.039.568-.039 1.266-.039 2.132v.034a.96.96 0 1 0 1.92 0c0-.908 0-1.54.034-2.035.033-.487.095-.77.185-.987a2.88 2.88 0 0 1 1.558-1.558c.217-.09.5-.152.987-.185.496-.034 1.128-.034 2.036-.034h2.88c.53 0 .96-.43.96-.96"/></svg>
